assets/images/nsorderedset-case-1.svg

<svg height="262pt" viewBox="89 90 355 262" width="355pt"
    xmlns="http://www.w3.org/2000/svg"
    xmlns:xlink="http://www.w3.org/1999/xlink">
    <defs>
        <font-face ascent="770.01953" cap-height="717.28516" descent="-229.98047" font-family="Helvetica" font-size="12" font-weight="500" underline-position="-75.683594" underline-thickness="49.316406" x-height="522.94922">
            <font-face-src>
                <font-face-name name="Helvetica"/>
            </font-face-src>
        </font-face>
        <marker id="a" markerHeight="8" markerUnits="strokeWidth" markerWidth="10" orient="auto" overflow="visible" viewBox="-1 -4 10 8">
            <path d="m8 0-8-3v6z" stroke="#000"/>
        </marker>
        <marker id="b" markerHeight="8" markerUnits="strokeWidth" markerWidth="10" orient="auto" overflow="visible" viewBox="-1 -4 10 8">
            <path d="m8 0-8-3v6z" fill="none" stroke="#000"/>
        </marker>
        <marker id="c" markerHeight="8" markerUnits="strokeWidth" markerWidth="10" orient="auto" overflow="visible" viewBox="-1 -4 10 8">
            <path d="m8 0-8-3v6z" fill="none" stroke="#f00"/>
        </marker>
    </defs>
    <g fill="none">
        <path d="m197.5 94h138v52h-138z" fill="#fff"/>
        <path d="m197.5 94h138v52h-138z" stroke="#000" stroke-linecap="round" stroke-linejoin="round"/>
        <text fill="#000" transform="translate(202.5 113)">
            <tspan font-family="Helvetica" font-size="12" font-weight="500" textLength="34.68164" x="46.65918" y="11">NSSet</tspan>
        </text>
        <path d="m97.25 193h138v52h-138z" fill="#fff"/>
        <path d="m97.25 193h138v52h-138z" stroke="#000" stroke-linecap="round" stroke-linejoin="round"/>
        <text fill="#000" transform="translate(102.25 212)">
            <tspan font-family="Helvetica" font-size="12" font-weight="500" textLength="77.373047" x="25.313477" y="11">NSMutableSet</tspan>
        </text>
        <path d="m192.93379 192.64867v-11.9-11h46.88145v-11.49735-2" marker-end="url(#a)" stroke="#000" stroke-linecap="round" stroke-linejoin="round"/>
        <path d="m297.75 193h138v52h-138z" fill="#fff"/>
        <path d="m297.75 193h138v52h-138z" stroke="#000" stroke-linecap="round" stroke-linejoin="round"/>
        <text fill="#000" transform="translate(302.75 212)">
            <tspan font-family="Helvetica" font-size="12" font-weight="500" textLength="78.703125" x="24.648438" y="11">NSOrderedSet</tspan>
        </text>
        <path d="m297.75 288h138v52h-138z" fill="#fff"/>
        <path d="m297.75 288h138v52h-138z" stroke="#000" stroke-linecap="round" stroke-linejoin="round"/>
        <text fill="#000" transform="translate(302.75 307)">
            <tspan font-family="Helvetica" font-size="12" font-weight="500" textLength="121.39453" x="3.302734" y="11">NSMutableOrderedSet</tspan>
        </text>
        <g stroke-linecap="round" stroke-linejoin="round">
            <path d="m340.06621 192.64867v-11.9-11h-46.88145v-11.49735-2" marker-end="url(#a)" stroke="#000"/>
            <path d="m366.75002 287.5v-11.9-18.2-2" marker-end="url(#b)" stroke="#000"/>
            <path d="m311.42447 287.7859v-11.89999-9h-89.84894v-9.77182-2" marker-end="url(#c)" stroke="#f00"/>
        </g>
    </g>
</svg>

<?xml version="1.0"?>
<!DOCTYPE svg PUBLIC "-//W3C//DTD SVG 1.1//EN" "http://www.w3.org/Graphics/SVG/1.1/DTD/svg11.dtd">
<svg xmlns="http://www.w3.org/2000/svg" xmlns:xl="http://www.w3.org/1999/xlink" version="1.1" viewBox="89 90 355 262" width="355pt" height="262pt"><metadata xmlns:dc="http://purl.org/dc/elements/1.1/"><dc:date>2012-11-25 15:27Z</dc:date><!-- Produced by OmniGraffle Professional 5.4.2 --></metadata><defs><filter id="Shadow" filterUnits="userSpaceOnUse"><feGaussianBlur in="SourceAlpha" result="blur" stdDeviation="1.8559464"/><feOffset in="blur" result="offset" dx="0" dy="4"/><feFlood flood-color="silver" flood-opacity=".75" result="flood"/><feComposite in="flood" in2="offset" operator="in"/></filter><font-face font-family="Helvetica" font-size="12" units-per-em="1000" underline-position="-75.683594" underline-thickness="49.316406" slope="0" x-height="522.94922" cap-height="717.28516" ascent="770.01953" descent="-229.98047" font-weight="500"><font-face-src><font-face-name name="Helvetica"/></font-face-src></font-face><marker orient="auto" overflow="visible" markerUnits="strokeWidth" id="FilledArrow_Marker" viewBox="-1 -4 10 8" markerWidth="10" markerHeight="8" color="black"><g><path d="M 8 0 L 0 -3 L 0 3 Z" fill="currentColor" stroke="currentColor" stroke-width="1"/></g></marker><marker orient="auto" overflow="visible" markerUnits="strokeWidth" id="Arrow_Marker" viewBox="-1 -4 10 8" markerWidth="10" markerHeight="8" color="black"><g><path d="M 8 0 L 0 -3 L 0 3 Z" fill="none" stroke="currentColor" stroke-width="1"/></g></marker><marker orient="auto" overflow="visible" markerUnits="strokeWidth" id="Arrow_Marker_2" viewBox="-1 -4 10 8" markerWidth="10" markerHeight="8" color="red"><g><path d="M 8 0 L 0 -3 L 0 3 Z" fill="none" stroke="currentColor" stroke-width="1"/></g></marker></defs><g stroke="none" stroke-opacity="1" stroke-dasharray="none" fill="none" fill-opacity="1"><title>Canvas 1</title><g><title>Layer 1</title><g><use xl:href="#id1_Graphic" filter="url(#Shadow)"/><use xl:href="#id3_Graphic" filter="url(#Shadow)"/><use xl:href="#id4_Graphic" filter="url(#Shadow)"/><use xl:href="#id6_Graphic" filter="url(#Shadow)"/><use xl:href="#id7_Graphic" filter="url(#Shadow)"/><use xl:href="#id8_Graphic" filter="url(#Shadow)"/><use xl:href="#id9_Graphic" filter="url(#Shadow)"/></g><g id="id1_Graphic"><rect x="197.5" y="94" width="138" height="52" fill="white"/><rect x="197.5" y="94" width="138" height="52" stroke="black" stroke-linecap="round" stroke-linejoin="round" stroke-width="1"/><text transform="translate(202.5 113)" fill="black"><tspan font-family="Helvetica" font-size="12" font-weight="500" x="46.65918" y="11" textLength="34.68164">NSSet</tspan></text></g><g id="id3_Graphic"><rect x="97.25" y="193" width="138" height="52" fill="white"/><rect x="97.25" y="193" width="138" height="52" stroke="black" stroke-linecap="round" stroke-linejoin="round" stroke-width="1"/><text transform="translate(102.25 212)" fill="black"><tspan font-family="Helvetica" font-size="12" font-weight="500" x="25.313477" y="11" textLength="77.373047">NSMutableSet</tspan></text></g><g id="id4_Graphic"><path d="M 192.93379 192.64867 L 192.93379 180.74867 L 192.93379 169.74867 L 239.81524 169.74867 L 239.81524 158.25132 L 239.81524 156.25132" marker-end="url(#FilledArrow_Marker)" stroke="black" stroke-linecap="round" stroke-linejoin="round" stroke-width="1"/></g><g id="id6_Graphic"><rect x="297.75" y="193" width="138" height="52" fill="white"/><rect x="297.75" y="193" width="138" height="52" stroke="black" stroke-linecap="round" stroke-linejoin="round" stroke-width="1"/><text transform="translate(302.75 212)" fill="black"><tspan font-family="Helvetica" font-size="12" font-weight="500" x="24.648438" y="11" textLength="78.703125">NSOrderedSet</tspan></text></g><g id="id7_Graphic"><rect x="297.75" y="288" width="138" height="52" fill="white"/><rect x="297.75" y="288" width="138" height="52" stroke="black" stroke-linecap="round" stroke-linejoin="round" stroke-width="1"/><text transform="translate(302.75 307)" fill="black"><tspan font-family="Helvetica" font-size="12" font-weight="500" x="3.3027344" y="11" textLength="121.39453">NSMutableOrderedSet</tspan></text></g><g id="id8_Graphic"><path d="M 340.06621 192.64867 L 340.06621 180.74867 L 340.06621 169.74867 L 293.18476 169.74867 L 293.18476 158.25132 L 293.18476 156.25132" marker-end="url(#FilledArrow_Marker)" stroke="black" stroke-linecap="round" stroke-linejoin="round" stroke-width="1"/></g><g id="id9_Graphic"><path d="M 366.75002 287.5 L 366.75002 275.6 L 366.75002 257.4 L 366.75002 255.4" marker-end="url(#Arrow_Marker)" stroke="black" stroke-linecap="round" stroke-linejoin="round" stroke-width="1"/></g><path d="M 311.42447 287.7859 L 311.42447 275.88591 L 311.42447 266.88591 L 221.57553 266.88591 L 221.57553 257.11409 L 221.57553 255.11409" marker-end="url(#Arrow_Marker_2)" stroke="red" stroke-linecap="round" stroke-linejoin="round" stroke-width="1"/></g></g></svg>
